public/icons/deaths.svg

<svg height="150" viewBox="0 0 164 150" width="164" xmlns="http://www.w3.org/2000/svg"><path d="m.816 60.221h158.434v-21.879h-158.434zm147.822-21.879h-137.209v-12.359c0-5.258 4.262-9.52 9.519-9.52h118.171c5.257 0 9.519 4.262 9.519 9.52zm-94.105-21.879v21.879zm-8.173 0h-26.758c-4.514 0-8.173-3.659-8.173-8.173s3.659-8.173 8.173-8.173h26.758c4.514 0 8.173 3.659 8.173 8.173s-3.659 8.173-8.173 8.173zm-15.243 110.954 98.485-67.196zm110.983-67.196-107.011 73.003zm-106.804 74.949c0 5.14-4.166 9.306-9.305 9.306-5.138 0-9.304-4.166-9.304-9.306 0-5.138 4.166-9.304 9.304-9.304 5.139 0 9.305 4.166 9.305 9.304zm93.064-7.753-42.372-28.914zm-3.971 5.807-44.65-30.458zm-44.65-38.984-49.864-34.019zm-6.249 4.263-56.113-38.282zm50.69 36.667c0 5.14 4.166 9.306 9.305 9.306s9.305-4.166 9.305-9.306c0-5.138-4.166-9.304-9.305-9.304s-9.305 4.166-9.305 9.304z" fill="none" stroke="#fff" stroke-width="5" transform="translate(2 3)"/></svg>

<svg width="164px" height="150px" viewBox="0 0 164 150" version="1.1" xmlns="http://www.w3.org/2000/svg" xmlns:xlink="http://www.w3.org/1999/xlink">
    <g id="Page-1" stroke="none" stroke-width="1" fill="none" fill-rule="evenodd">
        <g id="deaths" transform="translate(2.000000, 3.000000)" stroke="#FFFFFF" stroke-width="5">
            <path d="M0.816,60.221 L159.25,60.221 L159.25,38.342 L0.816,38.342 L0.816,60.221 Z M148.638,38.342 L11.429,38.342 L11.429,25.983 C11.429,20.725 15.691,16.463 20.948,16.463 L139.119,16.463 C144.376,16.463 148.638,20.725 148.638,25.983 L148.638,38.342 Z M54.533,16.463 L54.533,38.342 L54.533,16.463 Z M46.36,16.463 L19.602,16.463 C15.088,16.463 11.429,12.804 11.429,8.29 C11.429,3.776 15.088,0.117 19.602,0.117 L46.36,0.117 C50.874,0.117 54.533,3.776 54.533,8.29 C54.533,12.804 50.874,16.463 46.36,16.463 Z M31.117,127.417 L129.602,60.221 L31.117,127.417 Z M142.1,60.221 L35.089,133.224 L142.1,60.221 Z M35.296,135.17 C35.296,140.31 31.13,144.476 25.991,144.476 C20.853,144.476 16.687,140.31 16.687,135.17 C16.687,130.032 20.853,125.866 25.991,125.866 C31.13,125.866 35.296,130.032 35.296,135.17 Z M128.36,127.417 L85.988,98.503 L128.36,127.417 Z M124.389,133.224 L79.739,102.766 L124.389,133.224 Z M79.739,94.24 L29.875,60.221 L79.739,94.24 Z M73.49,98.503 L17.377,60.221 L73.49,98.503 Z M124.18,135.17 C124.18,140.31 128.346,144.476 133.485,144.476 C138.624,144.476 142.79,140.31 142.79,135.17 C142.79,130.032 138.624,125.866 133.485,125.866 C128.346,125.866 124.18,130.032 124.18,135.17 Z" id="Stroke-97"></path>
        </g>
    </g>
</svg>
